icon-themes/breeze_svg/cmd/lc_preformattedparastyle.svg

<svg viewBox="0 0 24 24" xmlns="http://www.w3.org/2000/svg"><path d="m13.5 4-4 15.753906 1 .246094 4-15.7539062zm-5.2460938 3-3.9746093 4.644531-.2792969.355469.2792969.355469 3.9746093 4.644531.7460938-.708984-3.6640625-4.291016 3.6640625-4.2910156z" fill="#4d4d4d"/><path d="m17 12a2.5 2.5 0 0 0 -2.5 2.5 2.5 2.5 0 0 0 2.5 2.5v3h1v-8zm2 0v8h1v-8z" fill="#1d99f3"/></svg>

<svg xmlns="http://www.w3.org/2000/svg" viewBox="0 0 24 24">
 <path 
     style="fill:#4d4d4d" 
     d="M 13.5 4 L 9.5 19.753906 L 10.5 20 L 14.5 4.2460938 L 13.5 4 z M 8.2539062 7 L 4.2792969 11.644531 L 4 12 L 4.2792969 12.355469 L 8.2539062 17 L 9 16.291016 L 5.3359375 12 L 9 7.7089844 L 8.2539062 7 z "
     />
 <path 
     style="fill:#1d99f3" 
     d="M 17 12 A 2.5 2.5 0 0 0 14.5 14.5 A 2.5 2.5 0 0 0 17 17 L 17 20 L 18 20 L 18 12 L 17 12 z M 19 12 L 19 20 L 20 20 L 20 12 L 19 12 z "
     />
 </svg>
